X:123
%%etbk:tnset id:43,pos:3,rep:3x,ant:
%%etbk:wsite http://www.thesession.org/tunes/display/690
%%etbk:wsite http://www.youtube.com/watch?v=fSUzhNJLaB0
%%etbk:pldat 2016-09-17T15:49,2016-09-16T15:39,2016-09-13T15:43,2016-09-12T18:26,2016-08-05T17:19,2016-08-02T15:13,2016-07-31T16:36,2016-07-28T18:18,2016-07-26T16:03,2014-11-24T16:52,2014-09-30T15:18,2014-05-06T18:11,2014-05-02T18:33,2014-02-05T16:56,2013-11-25T19:35,2013-11-20T17:41
T: Steampacket, The
Z: Piano Box Version by Martin Fleischmann
H: Created 2013-02-19 /  Last Modified 2013-11-20
M: 4/4
L: 1/8
R: reel
K: Gmaj
"G"!3!A!2!G !2!GG !3!A!2!G!1!F!2!G|!3!AG GG !3!A!5!dd!4!c | !3!AG GG !3!A!2!G!1!D!2!E | "F"!3!=F2!1!F!2!G !3!AB!5!c!4!B|
"G"!3!A!2!G !2!GG !3!A!2!G!1!F!2!G|!3!AG GG !3!A!5!dd!4!c | !3!AG GG !3!A!2!G!1!D!2!E | "F"!3!=F2!1!F!2!G !1!AB!3!c!1!A||
"G"!2!d!4!g!3!g!4!g !5!a!4!g!4!g!3!f|!1!d2 !4!g!4!g !3!f!1!d!2!c!1!A |!2!d!4!g!3!g!4!g !5!a!4!g!4!g!3!f| "D"!1!d!2!^c!1!de !3!f!1!d=!2!c!1!A|
"G"d2 !4!gg a!4!g !1!(3efg | "D"!4!abag !2!f3!4!g|!5!a2 !4!ge !3!fd!4!e!2!^c|!1!d2 e!4!g f!1!d!2!c!1!A||


